icons/modern/hot-dog.svg

<svg width="32" height="32" viewBox="0 0 32 32" fill="none" xmlns="http://www.w3.org/2000/svg">
<path d="M14.93 4.37999C12.51 8.84999 8.84998 12.51 4.37998 14.93C1.69998 16.38 1.17998 20 3.32998 22.15L3.38998 22.21C4.82998 23.65 7.05998 23.98 8.84998 23.01C14.84 19.77 19.76 14.85 23 8.85999C23.97 7.05999 23.65 4.83999 22.2 3.39999L22.14 3.33999C20 1.17999 16.38 1.70999 14.93 4.37999Z" fill="#DC945A"/>
<path d="M14.93 4.37999C12.51 8.84999 8.84998 12.51 4.37998 14.93C1.69998 16.38 1.17998 20 3.32998 22.15L3.38998 22.21C4.82998 23.65 7.05998 23.98 8.84998 23.01C14.84 19.77 19.76 14.85 23 8.85999C23.97 7.05999 23.65 4.83999 22.2 3.39999L22.14 3.33999C20 1.17999 16.38 1.70999 14.93 4.37999Z" fill="url(#paint0_radial_18_30437)"/>
<path d="M17.22 6.13001C14.36 10.85 10.4 14.81 5.68003 17.67C2.33003 19.7 1.77003 24.33 4.54003 27.1C6.50003 29.06 9.55003 29.43 11.93 28C18.32 24.13 23.68 18.77 27.55 12.38C28.99 10 28.62 6.95001 26.65 4.99001C23.88 2.21001 19.25 2.78001 17.22 6.13001Z" fill="url(#paint1_linear_18_30437)"/>
<path d="M17.22 6.13001C14.36 10.85 10.4 14.81 5.68003 17.67C2.33003 19.7 1.77003 24.33 4.54003 27.1C6.50003 29.06 9.55003 29.43 11.93 28C18.32 24.13 23.68 18.77 27.55 12.38C28.99 10 28.62 6.95001 26.65 4.99001C23.88 2.21001 19.25 2.78001 17.22 6.13001Z" fill="url(#paint2_radial_18_30437)"/>
<path d="M17.22 6.13001C14.36 10.85 10.4 14.81 5.68003 17.67C2.33003 19.7 1.77003 24.33 4.54003 27.1C6.50003 29.06 9.55003 29.43 11.93 28C18.32 24.13 23.68 18.77 27.55 12.38C28.99 10 28.62 6.95001 26.65 4.99001C23.88 2.21001 19.25 2.78001 17.22 6.13001Z" fill="url(#paint3_radial_18_30437)"/>
<path d="M17.22 6.13001C14.36 10.85 10.4 14.81 5.68003 17.67C2.33003 19.7 1.77003 24.33 4.54003 27.1C6.50003 29.06 9.55003 29.43 11.93 28C18.32 24.13 23.68 18.77 27.55 12.38C28.99 10 28.62 6.95001 26.65 4.99001C23.88 2.21001 19.25 2.78001 17.22 6.13001Z" fill="url(#paint4_radial_18_30437)"/>
<path d="M17.22 6.13001C14.36 10.85 10.4 14.81 5.68003 17.67C2.33003 19.7 1.77003 24.33 4.54003 27.1C6.50003 29.06 9.55003 29.43 11.93 28C18.32 24.13 23.68 18.77 27.55 12.38C28.99 10 28.62 6.95001 26.65 4.99001C23.88 2.21001 19.25 2.78001 17.22 6.13001Z" fill="url(#paint5_radial_18_30437)"/>
<path d="M21.11 10.19C18.61 14.81 14.81 18.61 10.19 21.11C7.41997 22.61 6.86997 26.36 9.09997 28.59L9.15997 28.65C10.66 30.15 12.96 30.48 14.81 29.47C21.01 26.11 26.11 21.02 29.47 14.81C30.48 12.95 30.14 10.65 28.65 9.16L28.59 9.1C26.36 6.87 22.61 7.42 21.11 10.19Z" fill="#E7A582"/>
<path d="M21.11 10.19C18.61 14.81 14.81 18.61 10.19 21.11C7.41997 22.61 6.86997 26.36 9.09997 28.59L9.15997 28.65C10.66 30.15 12.96 30.48 14.81 29.47C21.01 26.11 26.11 21.02 29.47 14.81C30.48 12.95 30.14 10.65 28.65 9.16L28.59 9.1C26.36 6.87 22.61 7.42 21.11 10.19Z" fill="url(#paint6_radial_18_30437)"/>
<path d="M21.11 10.19C18.61 14.81 14.81 18.61 10.19 21.11C7.41997 22.61 6.86997 26.36 9.09997 28.59L9.15997 28.65C10.66 30.15 12.96 30.48 14.81 29.47C21.01 26.11 26.11 21.02 29.47 14.81C30.48 12.95 30.14 10.65 28.65 9.16L28.59 9.1C26.36 6.87 22.61 7.42 21.11 10.19Z" fill="url(#paint7_radial_18_30437)"/>
<path d="M21.11 10.19C18.61 14.81 14.81 18.61 10.19 21.11C7.41997 22.61 6.86997 26.36 9.09997 28.59L9.15997 28.65C10.66 30.15 12.96 30.48 14.81 29.47C21.01 26.11 26.11 21.02 29.47 14.81C30.48 12.95 30.14 10.65 28.65 9.16L28.59 9.1C26.36 6.87 22.61 7.42 21.11 10.19Z" fill="url(#paint8_radial_18_30437)"/>
<path d="M21.11 10.19C18.61 14.81 14.81 18.61 10.19 21.11C7.41997 22.61 6.86997 26.36 9.09997 28.59L9.15997 28.65C10.66 30.15 12.96 30.48 14.81 29.47C21.01 26.11 26.11 21.02 29.47 14.81C30.48 12.95 30.14 10.65 28.65 9.16L28.59 9.1C26.36 6.87 22.61 7.42 21.11 10.19Z" fill="url(#paint9_radial_18_30437)"/>
<g filter="url(#filter0_f_18_30437)">
<path fill-rule="evenodd" clip-rule="evenodd" d="M20.7162 6.84989C21.0946 7.22827 21.0946 7.84175 20.7162 8.22013C20.4744 8.46193 20.4575 8.63473 20.46 9.16557C20.46 9.17656 20.4601 9.18769 20.4601 9.19895C20.4631 9.76076 20.4677 10.6586 19.6362 11.4901C18.8047 12.3217 17.9068 12.317 17.345 12.3141C17.3338 12.314 17.3226 12.314 17.3116 12.3139C16.7808 12.3115 16.608 12.3283 16.3662 12.5701C16.1244 12.8119 16.1075 12.9847 16.11 13.5156C16.11 13.5266 16.1101 13.5377 16.1101 13.5489C16.1131 14.1108 16.1177 15.0086 15.2862 15.8401C14.4547 16.6717 13.5568 16.667 12.995 16.6641C12.9838 16.664 12.9726 16.664 12.9616 16.6639C12.4308 16.6615 12.258 16.6783 12.0162 16.9201C11.7744 17.1619 11.7575 17.3347 11.76 17.8656C11.76 17.8766 11.7601 17.8877 11.7601 17.8989C11.7631 18.4608 11.7677 19.3586 10.9362 20.1901L10.933 20.1933C10.102 21.0167 9.20354 21.012 8.64279 21.0091C8.63101 21.009 8.61938 21.009 8.6079 21.0089C8.07247 21.0065 7.9019 21.0244 7.6662 21.2601C7.28782 21.6385 6.67435 21.6385 6.29597 21.2601C5.91759 20.8817 6.15286 20.4878 6.53124 20.1094C7.35788 19.2827 8.08272 19.3096 8.64279 19.3125C9.20256 19.3155 9.32164 19.0613 9.56755 18.8183C9.80784 18.5773 10.1587 18.5766 10.1562 18.0469C10.1537 17.4877 10.0848 16.5357 10.933 15.6875C11.7646 14.856 12.3998 14.919 12.9616 14.9219C13.5169 14.9248 13.8313 14.9728 14.0781 14.726C14.3199 14.4842 14.5024 14.0464 14.5 13.5156C14.4974 12.9564 14.438 12.192 15.2862 11.3438C16.1177 10.5122 16.7498 10.6533 17.3116 10.6563C17.867 10.6592 18.1438 10.4812 18.3906 10.2344C18.6374 9.98758 18.7841 9.72087 18.7812 9.16557C18.7783 8.60376 18.606 7.81592 19.4375 6.98439C19.8159 6.60601 20.3378 6.47152 20.7162 6.84989Z" fill="#E83F0F"/>
</g>
<path fill-rule="evenodd" clip-rule="evenodd" d="M20.5951 6.47489C20.9735 6.85326 20.9735 7.46674 20.5951 7.84512C20.3533 8.08692 20.3365 8.25972 20.3389 8.79056C20.339 8.80155 20.339 8.81268 20.3391 8.82394C20.342 9.38575 20.3467 10.2836 19.5151 11.1151C18.6836 11.9466 17.7858 11.942 17.224 11.9391C17.2127 11.939 17.2016 11.9389 17.1906 11.9389C16.6597 11.9365 16.4869 11.9533 16.2451 12.1951C16.0033 12.4369 15.9865 12.6097 15.9889 13.1406C15.989 13.1515 15.989 13.1627 15.9891 13.1739C15.992 13.7357 15.9967 14.6336 15.1651 15.4651C14.3336 16.2966 13.4358 16.292 12.874 16.2891C12.8627 16.289 12.8516 16.2889 12.8406 16.2889C12.3097 16.2865 12.1369 16.3033 11.8951 16.5451C11.6533 16.7869 11.6365 16.9597 11.6389 17.4906C11.639 17.5015 11.639 17.5127 11.6391 17.5239C11.642 18.0857 11.6467 18.9836 10.8151 19.8151L10.812 19.8183C9.9809 20.6417 9.08247 20.637 8.52172 20.6341C8.50994 20.634 8.49831 20.6339 8.48683 20.6339C7.9514 20.6314 7.78082 20.6494 7.54513 20.8851C7.16675 21.2635 6.55328 21.2635 6.1749 20.8851C5.79652 20.5067 5.79652 19.8933 6.1749 19.5149C7.00154 18.6882 7.90019 18.693 8.46027 18.6959C9.02003 18.6989 9.20057 18.6863 9.44648 18.4433C9.69175 18.1973 9.70384 18.0202 9.70096 17.4661C9.69804 16.9043 9.69337 16.0064 10.5249 15.1749C11.3731 14.3267 12.2903 14.3485 12.8495 14.3511C13.3803 14.3535 13.5531 14.3367 13.7949 14.0949C14.0417 13.8481 14.0538 13.6714 14.051 13.1161C14.048 12.5543 14.0434 11.6564 14.8749 10.8249C15.7064 9.99335 16.6043 9.99802 17.1661 10.0009C17.7214 10.0038 17.8981 9.99169 18.1449 9.74489C18.3867 9.50309 18.4036 9.33029 18.4011 8.79945C18.3986 8.24028 18.3767 7.32309 19.2249 6.47489C19.6033 6.09651 20.2167 6.09651 20.5951 6.47489Z" fill="url(#paint10_linear_18_30437)"/>
<defs>
<filter id="filter0_f_18_30437" x="5.10394" y="5.62457" width="16.8961" height="16.9193" filterUnits="userSpaceOnUse" color-interpolation-filters="sRGB">
<feFlood flood-opacity="0" result="BackgroundImageFix"/>
<feBlend mode="normal" in="SourceGraphic" in2="BackgroundImageFix" result="shape"/>
<feGaussianBlur stdDeviation="0.5" result="effect1_foregroundBlur_18_30437"/>
</filter>
<radialGradient id="paint0_radial_18_30437" cx="0" cy="0" r="1" gradientUnits="userSpaceOnUse" gradientTransform="translate(15.875 5.75) rotate(90) scale(17 44.5474)">
<stop offset="0.0441176" stop-color="#F2C28D"/>
<stop offset="0.904412" stop-color="#E7B07E" stop-opacity="0"/>
</radialGradient>
<linearGradient id="paint1_linear_18_30437" x1="22" y1="21.5" x2="10.125" y2="10.875" gradientUnits="userSpaceOnUse">
<stop stop-color="#E9542B"/>
<stop offset="1" stop-color="#EC734D"/>
</linearGradient>
<radialGradient id="paint2_radial_18_30437" cx="0" cy="0" r="1" gradientUnits="userSpaceOnUse" gradientTransform="translate(9.5 30) rotate(-99.656) scale(14.1594 14.1611)">
<stop offset="0.104119" stop-color="#EC3F67"/>
<stop offset="0.640668" stop-color="#FF5948"/>
<stop offset="1" stop-color="#FF6654" stop-opacity="0"/>
</radialGradient>
<radialGradient id="paint3_radial_18_30437" cx="0" cy="0" r="1" gradientUnits="userSpaceOnUse" gradientTransform="translate(25.625 7.12502) rotate(99.4623) scale(6.84311 6.84392)">
<stop stop-color="#FD9655"/>
<stop offset="1" stop-color="#FD9653" stop-opacity="0"/>
</radialGradient>
<radialGradient id="paint4_radial_18_30437" cx="0" cy="0" r="1" gradientUnits="userSpaceOnUse" gradientTransform="translate(18.625 19.5) rotate(45.6031) scale(8.39736 17.9446)">
<stop stop-color="#E65127"/>
<stop offset="1" stop-color="#E65127" stop-opacity="0"/>
</radialGradient>
<radialGradient id="paint5_radial_18_30437" cx="0" cy="0" r="1" gradientUnits="userSpaceOnUse" gradientTransform="translate(12.625 9.75002) rotate(133.958) scale(9.72433 4.85215)">
<stop stop-color="#E97E53"/>
<stop offset="1" stop-color="#EC8A60" stop-opacity="0"/>
</radialGradient>
<radialGradient id="paint6_radial_18_30437" cx="0" cy="0" r="1" gradientUnits="userSpaceOnUse" gradientTransform="translate(24.125 11.25) rotate(126.757) scale(25.275 25.2719)">
<stop stop-color="#EBB494"/>
<stop offset="1" stop-color="#DF9860"/>
</radialGradient>
<radialGradient id="paint7_radial_18_30437" cx="0" cy="0" r="1" gradientUnits="userSpaceOnUse" gradientTransform="translate(17.625 10.5) rotate(102.465) scale(24.3233 17.7665)">
<stop offset="0.55497" stop-color="#D77069" stop-opacity="0"/>
<stop offset="0.826246" stop-color="#D86F69"/>
</radialGradient>
<radialGradient id="paint8_radial_18_30437" cx="0" cy="0" r="1" gradientUnits="userSpaceOnUse" gradientTransform="translate(28.625 10.75) rotate(60.2551) scale(7.05448 5.42652)">
<stop stop-color="#FFD1A1"/>
<stop offset="0.90156" stop-color="#FFD19F" stop-opacity="0"/>
</radialGradient>
<radialGradient id="paint9_radial_18_30437" cx="0" cy="0" r="1" gradientUnits="userSpaceOnUse" gradientTransform="translate(36.25 28.5) rotate(-164.667) scale(32.1442 39.0907)">
<stop offset="0.806799" stop-color="#F0A074" stop-opacity="0"/>
<stop offset="0.891233" stop-color="#F0A470"/>
</radialGradient>
<linearGradient id="paint10_linear_18_30437" x1="15.25" y1="14.9375" x2="12.0938" y2="11.7813" gradientUnits="userSpaceOnUse">
<stop stop-color="#E8BF1C"/>
<stop offset="0.376238" stop-color="#E8C83E"/>
<stop offset="0.693069" stop-color="#E9CF57"/>
</linearGradient>
</defs>
</svg>

<svg width="32" height="32" fill="none" xmlns="http://www.w3.org/2000/svg"><path d="M14.93 4.38A26.138 26.138 0 0 1 4.38 14.93C1.7 16.38 1.18 20 3.33 22.15l.06.06a4.625 4.625 0 0 0 5.46.8A35.051 35.051 0 0 0 23 8.86c.97-1.8.65-4.02-.8-5.46l-.06-.06C20 1.18 16.38 1.71 14.93 4.38Z" fill="#DC945A"/><path d="M14.93 4.38A26.138 26.138 0 0 1 4.38 14.93C1.7 16.38 1.18 20 3.33 22.15l.06.06a4.625 4.625 0 0 0 5.46.8A35.051 35.051 0 0 0 23 8.86c.97-1.8.65-4.02-.8-5.46l-.06-.06C20 1.18 16.38 1.71 14.93 4.38Z" fill="url(#a)"/><path d="M17.22 6.13A34.245 34.245 0 0 1 5.68 17.67c-3.35 2.03-3.91 6.66-1.14 9.43a6.049 6.049 0 0 0 7.39.9 46.31 46.31 0 0 0 15.62-15.62 6.021 6.021 0 0 0-.9-7.39c-2.77-2.78-7.4-2.21-9.43 1.14Z" fill="url(#b)"/><path d="M17.22 6.13A34.245 34.245 0 0 1 5.68 17.67c-3.35 2.03-3.91 6.66-1.14 9.43a6.049 6.049 0 0 0 7.39.9 46.31 46.31 0 0 0 15.62-15.62 6.021 6.021 0 0 0-.9-7.39c-2.77-2.78-7.4-2.21-9.43 1.14Z" fill="url(#c)"/><path d="M17.22 6.13A34.245 34.245 0 0 1 5.68 17.67c-3.35 2.03-3.91 6.66-1.14 9.43a6.049 6.049 0 0 0 7.39.9 46.31 46.31 0 0 0 15.62-15.62 6.021 6.021 0 0 0-.9-7.39c-2.77-2.78-7.4-2.21-9.43 1.14Z" fill="url(#d)"/><path d="M17.22 6.13A34.245 34.245 0 0 1 5.68 17.67c-3.35 2.03-3.91 6.66-1.14 9.43a6.049 6.049 0 0 0 7.39.9 46.31 46.31 0 0 0 15.62-15.62 6.021 6.021 0 0 0-.9-7.39c-2.77-2.78-7.4-2.21-9.43 1.14Z" fill="url(#e)"/><path d="M17.22 6.13A34.245 34.245 0 0 1 5.68 17.67c-3.35 2.03-3.91 6.66-1.14 9.43a6.049 6.049 0 0 0 7.39.9 46.31 46.31 0 0 0 15.62-15.62 6.021 6.021 0 0 0-.9-7.39c-2.77-2.78-7.4-2.21-9.43 1.14Z" fill="url(#f)"/><path d="M21.11 10.19c-2.5 4.62-6.3 8.42-10.92 10.92-2.77 1.5-3.32 5.25-1.09 7.48l.06.06c1.5 1.5 3.8 1.83 5.65.82 6.2-3.36 11.3-8.45 14.66-14.66 1.01-1.86.67-4.16-.82-5.65l-.06-.06c-2.23-2.23-5.98-1.68-7.48 1.09Z" fill="#E7A582"/><path d="M21.11 10.19c-2.5 4.62-6.3 8.42-10.92 10.92-2.77 1.5-3.32 5.25-1.09 7.48l.06.06c1.5 1.5 3.8 1.83 5.65.82 6.2-3.36 11.3-8.45 14.66-14.66 1.01-1.86.67-4.16-.82-5.65l-.06-.06c-2.23-2.23-5.98-1.68-7.48 1.09Z" fill="url(#g)"/><path d="M21.11 10.19c-2.5 4.62-6.3 8.42-10.92 10.92-2.77 1.5-3.32 5.25-1.09 7.48l.06.06c1.5 1.5 3.8 1.83 5.65.82 6.2-3.36 11.3-8.45 14.66-14.66 1.01-1.86.67-4.16-.82-5.65l-.06-.06c-2.23-2.23-5.98-1.68-7.48 1.09Z" fill="url(#h)"/><path d="M21.11 10.19c-2.5 4.62-6.3 8.42-10.92 10.92-2.77 1.5-3.32 5.25-1.09 7.48l.06.06c1.5 1.5 3.8 1.83 5.65.82 6.2-3.36 11.3-8.45 14.66-14.66 1.01-1.86.67-4.16-.82-5.65l-.06-.06c-2.23-2.23-5.98-1.68-7.48 1.09Z" fill="url(#i)"/><path d="M21.11 10.19c-2.5 4.62-6.3 8.42-10.92 10.92-2.77 1.5-3.32 5.25-1.09 7.48l.06.06c1.5 1.5 3.8 1.83 5.65.82 6.2-3.36 11.3-8.45 14.66-14.66 1.01-1.86.67-4.16-.82-5.65l-.06-.06c-2.23-2.23-5.98-1.68-7.48 1.09Z" fill="url(#j)"/><g filter="url(#k)"><path fill-rule="evenodd" clip-rule="evenodd" d="M20.716 6.85a.969.969 0 0 1 0 1.37c-.242.242-.259.415-.256.946v.033c.003.562.008 1.46-.824 2.291-.831.832-1.73.827-2.291.824h-.033c-.531-.002-.704.014-.946.256s-.258.415-.256.946v.033c.003.562.008 1.46-.824 2.291-.831.832-1.73.827-2.291.824h-.033c-.531-.003-.704.014-.946.256s-.258.415-.256.946v.033c.003.562.008 1.46-.824 2.291l-.003.003c-.831.824-1.73.819-2.29.816h-.035c-.536-.003-.706.015-.942.251a.969.969 0 0 1-1.37 0c-.378-.378-.143-.772.235-1.15.827-.827 1.552-.8 2.112-.797.56.003.679-.252.925-.495.24-.24.59-.241.588-.771-.002-.56-.071-1.511.777-2.36.832-.831 1.467-.768 2.029-.765.555.003.87.05 1.116-.196.242-.242.424-.68.422-1.21-.003-.56-.062-1.324.786-2.172.832-.832 1.464-.69 2.026-.688.555.003.832-.175 1.079-.422.246-.246.393-.513.39-1.068-.003-.562-.175-1.35.657-2.182.378-.378.9-.512 1.278-.134Z" fill="#E83F0F"/></g><path fill-rule="evenodd" clip-rule="evenodd" d="M20.595 6.475a.969.969 0 0 1 0 1.37c-.242.242-.258.415-.256.946v.033c.003.562.008 1.46-.824 2.291-.831.832-1.73.827-2.291.824h-.033c-.531-.002-.704.014-.946.256s-.259.415-.256.946v.033c.003.562.008 1.46-.824 2.291-.831.832-1.73.827-2.291.824h-.033c-.531-.003-.704.014-.946.256s-.258.415-.256.946v.033c.003.562.008 1.46-.824 2.291l-.003.003c-.831.824-1.73.819-2.29.816h-.035c-.536-.003-.706.015-.942.251a.969.969 0 1 1-1.37-1.37c.827-.827 1.725-.822 2.285-.82.56.004.74-.009.986-.252.246-.246.258-.423.255-.977-.003-.562-.008-1.46.824-2.291.848-.848 1.765-.827 2.325-.824.53.002.703-.014.945-.256.247-.247.259-.424.256-.979-.003-.562-.008-1.46.824-2.291.831-.832 1.73-.827 2.291-.824.555.003.732-.01.979-.256.242-.242.259-.415.256-.946-.002-.559-.024-1.476.824-2.324a.969.969 0 0 1 1.37 0Z" fill="url(#l)"/><defs><radialGradient id="a" cx="0" cy="0" r="1" gradientUnits="userSpaceOnUse" gradientTransform="matrix(0 17 -44.5474 0 15.875 5.75)"><stop offset=".044" stop-color="#F2C28D"/><stop offset=".904" stop-color="#E7B07E" stop-opacity="0"/></radialGradient><radialGradient id="c" cx="0" cy="0" r="1" gradientUnits="userSpaceOnUse" gradientTransform="matrix(-2.37499 -13.9588 13.96047 -2.37527 9.5 30)"><stop offset=".104" stop-color="#EC3F67"/><stop offset=".641" stop-color="#FF5948"/><stop offset="1" stop-color="#FF6654" stop-opacity="0"/></radialGradient><radialGradient id="d" cx="0" cy="0" r="1" gradientUnits="userSpaceOnUse" gradientTransform="matrix(-1.125 6.75 -6.7508 -1.12513 25.625 7.125)"><stop stop-color="#FD9655"/><stop offset="1" stop-color="#FD9653" stop-opacity="0"/></radialGradient><radialGradient id="e" cx="0" cy="0" r="1" gradientUnits="userSpaceOnUse" gradientTransform="matrix(5.875 6 -12.8216 12.55449 18.625 19.5)"><stop stop-color="#E65127"/><stop offset="1" stop-color="#E65127" stop-opacity="0"/></radialGradient><radialGradient id="f" cx="0" cy="0" r="1" gradientUnits="userSpaceOnUse" gradientTransform="matrix(-6.74996 7.00005 -3.49281 -3.36803 12.625 9.75)"><stop stop-color="#E97E53"/><stop offset="1" stop-color="#EC8A60" stop-opacity="0"/></radialGradient><radialGradient id="g" cx="0" cy="0" r="1" gradientUnits="userSpaceOnUse" gradientTransform="matrix(-15.12513 20.24984 -20.24736 -15.12327 24.125 11.25)"><stop stop-color="#EBB494"/><stop offset="1" stop-color="#DF9860"/></radialGradient><radialGradient id="h" cx="0" cy="0" r="1" gradientUnits="userSpaceOnUse" gradientTransform="rotate(102.465 4.596 12.327) scale(24.3233 17.7665)"><stop offset=".555" stop-color="#D77069" stop-opacity="0"/><stop offset=".826" stop-color="#D86F69"/></radialGradient><radialGradient id="i" cx="0" cy="0" r="1" gradientUnits="userSpaceOnUse" gradientTransform="matrix(3.5 6.125 -4.71154 2.6923 28.625 10.75)"><stop stop-color="#FFD1A1"/><stop offset=".902" stop-color="#FFD19F" stop-opacity="0"/></radialGradient><radialGradient id="j" cx="0" cy="0" r="1" gradientUnits="userSpaceOnUse" gradientTransform="matrix(-31.00004 -8.49984 10.3367 -37.69928 36.25 28.5)"><stop offset=".807" stop-color="#F0A074" stop-opacity="0"/><stop offset=".891" stop-color="#F0A470"/></radialGradient><linearGradient id="b" x1="22" y1="21.5" x2="10.125" y2="10.875" gradientUnits="userSpaceOnUse"><stop stop-color="#E9542B"/><stop offset="1" stop-color="#EC734D"/></linearGradient><linearGradient id="l" x1="15.25" y1="14.938" x2="12.094" y2="11.781" gradientUnits="userSpaceOnUse"><stop stop-color="#E8BF1C"/><stop offset=".376" stop-color="#E8C83E"/><stop offset=".693" stop-color="#E9CF57"/></linearGradient><filter id="k" x="5.104" y="5.625" width="16.896" height="16.919" filterUnits="userSpaceOnUse" color-interpolation-filters="sRGB"><feFlood flood-opacity="0" result="BackgroundImageFix"/><feBlend in="SourceGraphic" in2="BackgroundImageFix" result="shape"/><feGaussianBlur stdDeviation=".5" result="effect1_foregroundBlur_18_30437"/></filter></defs></svg>
